X:1
T:Title
%%score { ( 1 3 ) | 2 }
L:1/8
Q:1/4=100
M:3/4
K:D
V:1 treble nm="Grand Piano"
V:3 treble 
V:2 bass 
V:1
 [FA]>[GB] [FA]2 [DF]2 | [Fd]>[Ac] B4 | d>B [DFA]2 [A,DF]2 | [A,D]>[A,DF] [A,CE]4 | %4
w: William~F.~Sherwin * * *||||
 [A,DF]>[A,EG] [A,FA]2 [A,DF]2 | [G,DG]>A B4 | d>B [FA]2 [DF]2 | [CE]>D D4 | z2 [EG]4 | z2 [FA]4 | %10
w: ||||||
 [Gd]>[GB] [FA]3 [DF] | [CE]>D D4 |] %12
w: ||
V:2
 [D,D]>[D,D] [D,D]2 [D,A,]2 | [D,A,]>[D,D][K:treble] [G,DG]4 | [G,B,G]>[G,DG][K:bass] D,2 D,2 | %3
 F,>D, A,,4 | D,>D, D,2 D,=C, | B,,>[D,F,D][K:treble] [G,D]4 | %6
 [G,B,D]>[G,DG][K:bass] [D,D]2 [D,A,]2 | [A,,G,]>[D,F,] [D,F,]4 | CC A,,A,, A,,2 | DD D,D, D,2 | %10
 [D,B,]>[D,D] [D,D]3 [D,A,] | [A,,G,]>[D,F,] [D,F,]4 |] %12
V:3
 x6 | x6 | x6 | x6 | x6 | x6 | x6 | x6 | EE A,A, A,2 | FF A,A, A,2 | x6 | x6 |] %12

